02.Resources/02.Icons/bxl-linkedin-square.svg

<svg xmlns="http://www.w3.org/2000/svg" width="24" height="24" viewBox="0 0 24 24"><path d="M20 3H4a1 1 0 0 0-1 1v16a1 1 0 0 0 1 1h16a1 1 0 0 0 1-1V4a1 1 0 0 0-1-1zM8.339 18.337H5.667v-8.59h2.672v8.59zM7.003 8.574a1.548 1.548 0 1 1 0-3.096 1.548 1.548 0 0 1 0 3.096zm11.335 9.763h-2.669V14.16c0-.996-.018-2.277-1.388-2.277-1.39 0-1.601 1.086-1.601 2.207v4.248h-2.667v-8.59h2.56v1.174h.037c.355-.675 1.227-1.387 2.524-1.387 2.704 0 3.203 1.778 3.203 4.092v4.71z"/></svg>

<?xml version="1.0" encoding="UTF-8" standalone="no"?>
<!DOCTYPE svg PUBLIC "-//W3C//DTD SVG 1.1//EN" "http://www.w3.org/Graphics/SVG/1.1/DTD/svg11.dtd">
<svg width="100%" height="100%" viewBox="0 0 24 24" version="1.1" xmlns="http://www.w3.org/2000/svg" xmlns:xlink="http://www.w3.org/1999/xlink" xml:space="preserve" xmlns:serif="http://www.serif.com/" style="fill-rule:evenodd;clip-rule:evenodd;stroke-linejoin:round;stroke-miterlimit:2;">
    <path d="M20,3L4,3C3.451,3 3,3.451 3,4L3,20C3,20.549 3.451,21 4,21L20,21C20.549,21 21,20.549 21,20L21,4C21,3.451 20.549,3 20,3ZM8.339,18.337L5.667,18.337L5.667,9.747L8.339,9.747L8.339,18.337ZM7.003,8.574C6.154,8.574 5.455,7.875 5.455,7.026C5.455,6.177 6.154,5.478 7.003,5.478C7.852,5.478 8.551,6.177 8.551,7.026C8.551,7.875 7.852,8.574 7.003,8.574ZM18.338,18.337L15.669,18.337L15.669,14.16C15.669,13.164 15.651,11.883 14.281,11.883C12.891,11.883 12.68,12.969 12.68,14.09L12.68,18.338L10.013,18.338L10.013,9.748L12.573,9.748L12.573,10.922L12.61,10.922C12.965,10.247 13.837,9.535 15.134,9.535C17.838,9.535 18.337,11.313 18.337,13.627L18.337,18.337L18.338,18.337Z" style="fill:rgb(248,106,46);fill-rule:nonzero;"/>
</svg>
